svg/u1f426.svg

<svg viewBox="0 0 128 128" xmlns="http://www.w3.org/2000/svg">
  <path d="M44.57,93.84c0,0,2.67,7.18,1.13,9.71c-1.55,2.53-7.74,2.04-9.64,3.24 c-1.36,0.86-1.34,3.24-0.49,4.22c0.84,0.99,13.09,0.14,15.49-4.5S50.2,92.99,50.2,92.99L44.57,93.84z" fill="#F97D23"/>
  <path d="M64.13,92.99l-5.21,1.13c0,0,2.25,9.43,0.42,12.53c-1.83,3.1-8.39,6.41-9.57,9.01 c-1.06,2.32,1.55,4.22,5.63,1.69s8.7-6.31,9.57-8.17C67.09,104.68,64.13,92.99,64.13,92.99z" fill="#F97D23"/>
  <path d="M28.52,21.9C17.44,24.39,8.81,33.73,12.05,47.94c1.92,8.43,3.1,11.4,3.8,15.2 c1.48,7.99,1.08,11.5,4.46,18.82c3.59,7.79,16.8,17.79,33.27,15.39s23.09-4.65,23.09-4.65l5.91-5.21l5.63-1.41l0.84-4.08 c0,0,4.21-0.19,5.07-1.55c1.36-2.16,0.56-3.94-1.83-4.79c-2.39-0.84-3.8-1.55-3.8-1.55s23.23-15.35,26.04-17.03s7.18-4.58,7.39-5.63 c0.53-2.67-6.69-8.59-16.12-11.4c-9.43-2.82-17.53-3.59-18.86-2.53c-1.77,1.39-9.57,16.05-14.78,15.35 c-6.76-0.92-11.4-7.25-12.67-10.84C58.05,37.96,49.4,17.21,28.52,21.9z" fill="#36B4E1"/>
  <path d="M14.3,43.86c-1.69-0.28-6.01,4.32-6.85,5.44s-2.17,2.73-1.69,3.94c0.75,1.88,4.6,1.98,6.85,2.16 c2.35,0.19,6.85,0.56,7.6-0.84c0.75-1.41-0.84-4.97-2.16-7.13C16.83,45.42,16.06,44.16,14.3,43.86z" fill="#F97D23"/>
  <ellipse cx="32.19" cy="43.61" fill="#2A2D2F" rx="4.02" ry="4.36" transform="matrix(0.9928 -0.1196 0.1196 0.9928 -4.9855 4.1639)"/>
  <path d="M45.41,73.71c-1.95,0.71,0.61,7.6,3.24,10.7c2.77,3.26,9.47,10.58,19.71,11.54 c6.95,0.66,10.04-1.31,11.68-3.1c1.22-1.33,2.53-2.87,3.43-3.57c1.31-1.03,2.63-0.14,4.88-1.78c1.62-1.18,1.97-3.14,2.82-3.85 c0.84-0.7,2.27-0.54,3-1.22c1.31-1.22,1.13-4.79,0.19-4.97s-1.03,2.53-1.97,2.91s-2.19,0.14-3.94,1.13 c-1.5,0.84-1.03,2.53-2.06,3.28s-2.91-0.28-5.44,1.13c-1.37,0.76-2.53,4.41-6.48,5.26c-4.9,1.05-12.25-2.52-15.77-5.07 C50.53,80.18,48.74,72.49,45.41,73.71z" fill="#026AA8"/>
</svg>

<svg viewBox="0 0 128 128" xmlns="http://www.w3.org/2000/svg">
  <defs/>
  <path d="M44.57,93.84 C44.57,93.84 47.24,101.02 45.7,103.55 C44.15,106.08 37.96,105.59 36.06,106.79 C34.7,107.65 34.72,110.03 35.57,111.01 C36.41,112 48.66,111.15 51.06,106.51 C53.46,101.87 50.2,92.99 50.2,92.99 L44.57,93.84 Z" fill="#F97D23"/>
  <path d="M64.13,92.99 L58.92,94.12 C58.92,94.12 61.17,103.55 59.34,106.65 C57.51,109.75 50.95,113.06 49.77,115.66 C48.71,117.98 51.32,119.88 55.4,117.35 C59.48,114.82 64.1,111.04 64.97,109.18 C67.09,104.68 64.13,92.99 64.13,92.99 Z" fill="#F97D23"/>
  <path d="M28.52,21.9 C17.44,24.39 8.81,33.73 12.05,47.94 C13.97,56.37 15.15,59.34 15.85,63.14 C17.33,71.13 16.93,74.64 20.31,81.96 C23.9,89.75 37.11,99.75 53.58,97.35 C70.05,94.95 76.67,92.7 76.67,92.7 L82.58,87.49 L88.21,86.08 L89.05,82 C89.05,82 93.26,81.81 94.12,80.45 C95.48,78.29 94.68,76.51 92.29,75.66 C89.9,74.82 88.49,74.11 88.49,74.11 C88.49,74.11 111.72,58.76 114.53,57.08 C117.34,55.4 121.71,52.5 121.92,51.45 C122.45,48.78 115.23,42.86 105.8,40.05 C96.37,37.23 88.27,36.46 86.94,37.52 C85.17,38.91 77.37,53.57 72.16,52.87 C65.4,51.95 60.76,45.62 59.49,42.03 C58.05,37.96 49.4,17.21 28.52,21.9 Z" fill="#36B4E1"/>
  <path d="M14.3,43.86 C12.61,43.58 8.29,48.18 7.45,49.3 C6.61,50.42 5.28,52.03 5.76,53.24 C6.51,55.12 10.36,55.22 12.61,55.4 C14.96,55.59 19.46,55.96 20.21,54.56 C20.96,53.15 19.37,49.59 18.05,47.43 C16.83,45.42 16.06,44.16 14.3,43.86 Z" fill="#F97D23"/>
  <path d="M36.18,43.129 C36.468,45.52 34.914,47.673 32.71,47.939 C30.506,48.204 28.485,46.481 28.197,44.091 C27.909,41.7 29.463,39.547 31.667,39.281 C33.871,39.016 35.892,40.739 36.18,43.129 Z" fill="#2A2D2F"/>
  <path d="M45.41,73.71 C43.46,74.42 46.02,81.31 48.65,84.41 C51.42,87.67 58.12,94.99 68.36,95.95 C75.31,96.61 78.4,94.64 80.04,92.85 C81.26,91.52 82.57,89.98 83.47,89.28 C84.78,88.25 86.1,89.14 88.35,87.5 C89.97,86.32 90.32,84.36 91.17,83.65 C92.01,82.95 93.44,83.11 94.17,82.43 C95.48,81.21 95.3,77.64 94.36,77.46 C93.42,77.28 93.33,79.99 92.39,80.37 C91.45,80.75 90.2,80.51 88.45,81.5 C86.95,82.34 87.42,84.03 86.39,84.78 C85.36,85.53 83.48,84.5 80.95,85.91 C79.58,86.67 78.42,90.32 74.47,91.17 C69.57,92.22 62.22,88.65 58.7,86.1 C50.53,80.18 48.74,72.49 45.41,73.71 Z" fill="#026AA8"/>
</svg>
